flaticon/emoticons/punk.svg

<svg xmlns="http://www.w3.org/2000/svg" width="32" height="32" viewBox="0 0 24 24">
    <path d="M11.769531 18C9.988281 18 8.539062 19.449219 8.539062 21.230469 8.539062 21.484375 8.746094 21.691406 9 21.691406 9.253906 21.691406 9.460938 21.484375 9.460938 21.230469 9.460938 19.957031 10.496094 18.921875 11.769531 18.921875 13.042969 18.921875 14.078125 19.957031 14.078125 21.230469 14.078125 21.484375 14.285156 21.691406 14.539062 21.691406 14.792969 21.691406 15 21.484375 15 21.230469 15 19.449219 13.550781 18 11.769531 18zM9.921875 13.382812C9.921875 13.894531 9.511719 14.308594 9 14.308594 8.488281 14.308594 8.078125 13.894531 8.078125 13.382812 8.078125 12.875 8.488281 12.460938 9 12.460938 9.511719 12.460938 9.921875 12.875 9.921875 13.382812zM16.382812 13.382812C16.382812 13.894531 15.972656 14.308594 15.460938 14.308594 14.953125 14.308594 14.539062 13.894531 14.539062 13.382812 14.539062 12.875 14.953125 12.460938 15.460938 12.460938 15.972656 12.460938 16.382812 12.875 16.382812 13.382812zM16.980469 16.289062C16.898438 16.375 16.847656 16.496094 16.847656 16.617188 16.847656 16.734375 16.898438 16.855469 16.980469 16.945312 17.066406 17.027344 17.1875 17.078125 17.308594 17.078125 17.425781 17.078125 17.546875 17.027344 17.636719 16.945312 17.71875 16.855469 17.769531 16.734375 17.769531 16.617188 17.769531 16.492188 17.71875 16.375 17.636719 16.289062 17.460938 16.117188 17.152344 16.117188 16.980469 16.289062zM16 15.308594C15.914062 15.398438 15.867188 15.511719 15.867188 15.636719 15.867188 15.757812 15.914062 15.878906 16 15.964844 16.089844 16.046875 16.210938 16.097656 16.328125 16.097656 16.449219 16.097656 16.570312 16.046875 16.65625 15.960938 16.738281 15.878906 16.789062 15.757812 16.789062 15.636719 16.789062 15.511719 16.738281 15.394531 16.65625 15.308594 16.484375 15.140625 16.171875 15.140625 16 15.308594zM17.957031 15.308594C17.875 15.398438 17.824219 15.511719 17.824219 15.636719 17.824219 15.757812 17.875 15.878906 17.957031 15.964844 18.046875 16.046875 18.167969 16.097656 18.285156 16.097656 18.40625 16.097656 18.527344 16.046875 18.613281 15.960938 18.695312 15.878906 18.746094 15.757812 18.746094 15.636719 18.746094 15.511719 18.695312 15.394531 18.613281 15.308594 18.441406 15.140625 18.132812 15.140625 17.957031 15.308594zM17.964844 17.265625C17.875 17.351562 17.824219 17.46875 17.824219 17.59375 17.824219 17.71875 17.875 17.835938 17.964844 17.921875 18.046875 18.003906 18.167969 18.054688 18.285156 18.054688 18.40625 18.054688 18.527344 18.003906 18.613281 17.921875 18.695312 17.835938 18.746094 17.714844 18.746094 17.59375 18.746094 17.476562 18.695312 17.355469 18.613281 17.265625 18.441406 17.097656 18.128906 17.097656 17.964844 17.265625zM16 17.265625C15.917969 17.355469 15.867188 17.46875 15.867188 17.59375 15.867188 17.714844 15.917969 17.835938 16 17.921875 16.089844 18.003906 16.210938 18.054688 16.328125 18.054688 16.449219 18.054688 16.570312 18.003906 16.65625 17.921875 16.738281 17.835938 16.789062 17.714844 16.789062 17.59375 16.789062 17.476562 16.738281 17.355469 16.65625 17.265625 16.484375 17.097656 16.175781 17.097656 16 17.265625zM6.769531 16.34375C6.6875 16.429688 6.636719 16.546875 6.636719 16.671875 6.636719 16.792969 6.6875 16.910156 6.769531 17 6.859375 17.082031 6.976562 17.132812 7.097656 17.132812 7.21875 17.132812 7.339844 17.082031 7.425781 17 7.507812 16.910156 7.558594 16.792969 7.558594 16.671875 7.558594 16.550781 7.507812 16.429688 7.425781 16.34375 7.25 16.171875 6.941406 16.171875 6.769531 16.34375zM5.792969 15.367188C5.703125 15.449219 5.660156 15.566406 5.660156 15.691406 5.660156 15.8125 5.703125 15.933594 5.792969 16.019531 5.878906 16.105469 6 16.15625 6.121094 16.15625 6.238281 16.15625 6.355469 16.105469 6.449219 16.019531 6.53125 15.933594 6.582031 15.8125 6.582031 15.691406 6.582031 15.566406 6.53125 15.453125 6.441406 15.367188 6.273438 15.195312 5.964844 15.195312 5.792969 15.367188zM8.078125 16.15625C8.195312 16.15625 8.316406 16.105469 8.40625 16.019531 8.488281 15.933594 8.539062 15.8125 8.539062 15.691406 8.539062 15.566406 8.488281 15.453125 8.40625 15.367188 8.234375 15.195312 7.921875 15.195312 7.75 15.367188 7.667969 15.453125 7.617188 15.574219 7.617188 15.691406 7.617188 15.8125 7.667969 15.933594 7.75 16.019531 7.835938 16.105469 7.957031 16.15625 8.078125 16.15625zM8.40625 17.324219C8.234375 17.152344 7.921875 17.152344 7.75 17.324219 7.667969 17.410156 7.617188 17.53125 7.617188 17.648438 7.617188 17.769531 7.667969 17.890625 7.75 17.976562 7.835938 18.066406 7.957031 18.113281 8.078125 18.113281 8.195312 18.113281 8.316406 18.066406 8.398438 17.976562 8.488281 17.894531 8.539062 17.773438 8.539062 17.648438 8.539062 17.527344 8.488281 17.410156 8.40625 17.324219zM5.792969 17.324219C5.703125 17.410156 5.660156 17.53125 5.660156 17.648438 5.660156 17.773438 5.703125 17.890625 5.792969 17.976562 5.878906 18.066406 6 18.113281 6.121094 18.113281 6.238281 18.113281 6.359375 18.066406 6.441406 17.976562 6.53125 17.890625 6.582031 17.769531 6.582031 17.648438 6.582031 17.53125 6.53125 17.410156 6.441406 17.324219 6.273438 17.152344 5.964844 17.152344 5.792969 17.324219zM5.792969 17.324219"/>
    <path d="M 21.871094 11.683594 C 21.132812 8.019531 18.398438 5.09375 14.800781 4.085938 L 15 0.488281 C 15.007812 0.359375 14.960938 0.234375 14.875 0.144531 C 14.785156 0.0507812 14.664062 0 14.539062 0 L 9.921875 0 C 9.796875 0 9.675781 0.0507812 9.585938 0.144531 C 9.5 0.238281 9.453125 0.359375 9.460938 0.488281 L 9.65625 3.96875 C 5.816406 4.847656 2.90625 7.820312 2.128906 11.683594 C 1.296875 12.136719 0.691406 13.117188 0.691406 14.078125 C 0.691406 15.070312 1.277344 15.964844 2.171875 16.375 C 3.324219 20.875 7.332031 24 12 24 C 16.667969 24 20.675781 20.875 21.828125 16.375 C 22.722656 15.964844 23.308594 15.070312 23.308594 14.078125 C 23.308594 13.117188 22.703125 12.136719 21.871094 11.683594 Z M 14.050781 0.921875 L 13.855469 4.40625 L 13.640625 8.308594 L 10.820312 8.308594 L 10.597656 4.304688 L 10.410156 0.921875 Z M 21.285156 15.597656 C 21.136719 15.648438 21.019531 15.773438 20.984375 15.929688 C 20.011719 20.136719 16.316406 23.078125 12 23.078125 C 7.683594 23.078125 3.988281 20.136719 3.015625 15.929688 C 2.980469 15.773438 2.863281 15.648438 2.714844 15.597656 C 2.058594 15.375 1.617188 14.761719 1.617188 14.078125 C 1.617188 13.40625 2.105469 12.667969 2.710938 12.429688 C 2.859375 12.371094 2.964844 12.238281 2.992188 12.082031 C 3.621094 8.527344 6.230469 5.757812 9.707031 4.898438 L 9.921875 8.796875 C 9.9375 9.039062 10.140625 9.230469 10.382812 9.230469 L 14.078125 9.230469 C 14.320312 9.230469 14.523438 9.039062 14.539062 8.796875 L 14.746094 5.027344 C 17.984375 6.007812 20.414062 8.726562 21.007812 12.082031 C 21.035156 12.238281 21.144531 12.371094 21.292969 12.429688 C 21.894531 12.667969 22.386719 13.40625 22.386719 14.078125 C 22.382812 14.761719 21.941406 15.375 21.285156 15.597656 Z M 21.285156 15.597656"/>
    <path d="M10.097656 12.359375C10.179688 12.429688 10.28125 12.460938 10.382812 12.460938 10.519531 12.460938 10.652344 12.402344 10.746094 12.289062 10.90625 12.089844 10.871094 11.796875 10.671875 11.640625L8.367188 9.792969C8.167969 9.632812 7.875 9.667969 7.71875 9.867188 7.558594 10.066406 7.589844 10.355469 7.789062 10.515625zM16.097656 9.792969L13.789062 11.640625C13.589844 11.800781 13.558594 12.089844 13.714844 12.289062 13.808594 12.402344 13.941406 12.460938 14.078125 12.460938 14.179688 12.460938 14.28125 12.429688 14.363281 12.359375L16.671875 10.515625C16.871094 10.355469 16.902344 10.0625 16.746094 9.867188 16.585938 9.664062 16.296875 9.632812 16.097656 9.792969zM16.097656 9.792969"/>
</svg>

<svg xmlns="http://www.w3.org/2000/svg" width="32" height="32" viewBox="0 0 24 24">
    <path d="M11.77 18a3.234 3.234 0 0 0-3.23 3.23.462.462 0 0 0 .92 0 2.31 2.31 0 0 1 2.31-2.308 2.31 2.31 0 0 1 2.308 2.308.462.462 0 0 0 .922 0c0-1.78-1.45-3.23-3.23-3.23zm0 0M9.922 13.383a.922.922 0 1 1-1.844 0 .921.921 0 1 1 1.844 0zm0 0M16.383 13.383a.922.922 0 1 1-1.844 0 .921.921 0 1 1 1.844 0zm0 0M16.98 16.29a.485.485 0 0 0-.132.327.5.5 0 0 0 .132.328.485.485 0 0 0 .329.133.5.5 0 0 0 .328-.133.5.5 0 0 0 .133-.328.477.477 0 0 0-.133-.328.482.482 0 0 0-.657 0zm0 0M16 15.309a.467.467 0 0 0-.133.328c0 .12.047.242.133.328a.5.5 0 0 0 .328.133c.121 0 .242-.051.328-.137a.468.468 0 0 0 0-.652.49.49 0 0 0-.656 0zm0 0M17.957 15.309a.485.485 0 0 0-.133.328c0 .12.051.242.133.328a.5.5 0 0 0 .328.133c.121 0 .242-.051.328-.137a.468.468 0 0 0 0-.652.49.49 0 0 0-.656 0zm0 0M17.965 17.266a.452.452 0 0 0 0 .656.466.466 0 0 0 .32.133c.121 0 .242-.051.328-.133a.485.485 0 0 0 .133-.328.5.5 0 0 0-.133-.328c-.172-.168-.484-.168-.648 0zm0 0M16 17.266a.485.485 0 0 0-.133.328c0 .12.051.242.133.328a.5.5 0 0 0 .328.133c.121 0 .242-.051.328-.133a.485.485 0 0 0 .133-.328.5.5 0 0 0-.133-.328.49.49 0 0 0-.656 0zm0 0M6.77 16.344a.477.477 0 0 0-.133.328c0 .121.05.238.133.328.09.082.207.133.328.133.12 0 .242-.051.328-.133a.492.492 0 0 0 .133-.328.485.485 0 0 0-.133-.328.482.482 0 0 0-.656 0zm0 0M5.793 15.367a.43.43 0 0 0-.133.324c0 .121.043.243.133.329a.471.471 0 0 0 .328.136c.117 0 .234-.05.328-.136a.485.485 0 0 0 .133-.329.443.443 0 0 0-.14-.324.472.472 0 0 0-.649 0zm0 0M8.078 16.156c.117 0 .238-.05.328-.136a.468.468 0 0 0 0-.652.482.482 0 0 0-.656 0 .483.483 0 0 0-.133.323c0 .121.051.243.133.329a.471.471 0 0 0 .328.136zm0 0M8.406 17.324a.482.482 0 0 0-.656 0 .483.483 0 0 0-.133.324c0 .122.051.243.133.329a.455.455 0 0 0 .648 0 .446.446 0 0 0 .141-.329.475.475 0 0 0-.133-.324zm0 0M5.793 17.324a.449.449 0 0 0-.133.324c0 .125.043.243.133.329a.455.455 0 0 0 .648 0 .459.459 0 0 0 .141-.329.457.457 0 0 0-.14-.324.472.472 0 0 0-.649 0zm0 0"/>
    <path d="M21.871 11.684a9.932 9.932 0 0 0-7.07-7.598L15 .488A.459.459 0 0 0 14.54 0H9.921a.464.464 0 0 0-.461.488l.195 3.48c-3.84.88-6.75 3.852-7.527 7.716-.832.453-1.438 1.433-1.438 2.394 0 .992.586 1.887 1.48 2.297A10.103 10.103 0 0 0 12 24c4.668 0 8.676-3.125 9.828-7.625a2.532 2.532 0 0 0 1.48-2.297c0-.96-.605-1.941-1.437-2.394zM14.051.922l-.196 3.484-.214 3.903h-2.82l-.223-4.004L10.41.922zm7.234 14.676a.461.461 0 0 0-.3.332A9.184 9.184 0 0 1 12 23.078a9.184 9.184 0 0 1-8.984-7.148.461.461 0 0 0-.301-.332 1.611 1.611 0 0 1-1.098-1.52c0-.672.488-1.41 1.094-1.648a.458.458 0 0 0 .281-.348 8.956 8.956 0 0 1 6.715-7.184l.215 3.899a.465.465 0 0 0 .46.433h3.696a.465.465 0 0 0 .461-.433l.207-3.77a9.01 9.01 0 0 1 6.262 7.055c.027.156.137.29.285.348.602.238 1.094.976 1.094 1.648a1.62 1.62 0 0 1-1.102 1.52zm0 0"/>
    <path d="M10.098 12.36a.468.468 0 0 0 .648-.07.46.46 0 0 0-.074-.65L8.367 9.794a.46.46 0 0 0-.648.074.46.46 0 0 0 .07.649zm0 0M16.098 9.793l-2.309 1.848c-.2.16-.23.449-.074.648a.468.468 0 0 0 .363.172.433.433 0 0 0 .285-.102l2.309-1.843c.2-.16.23-.454.074-.649a.457.457 0 0 0-.648-.074zm0 0"/>
</svg>
